X: 1
T: The Gay Gordons
M: 2/4
R: march
Z: John Chambers <jc@trillian.mit.edu>
L: 1/8
K: G
D \
|: "G"G>A BA/G/ | "C"c>d ed/c/ | "G"Bg     d/e/d/c/ | "D7"BA AD \
|  "G"G>A BA/G/ | "C"c>d ed/c/ | "G"Bg "D7"d/B/c/A/ | "G"BG G2 :|
d \
|: "G"g2 de/f/ | gd BG | g2     d/e/d/c/ | "D7"BA Ad \
|  "G"g2 de/f/ | gd BG | "C"ce "D7"Ad/c/ | "G"BG G2 :|
